; generated by PrusaSlicer 2.7.1+win64 on 2024-04-03 at 17:46:44 UTC


;
;
; 

; external perimeters extrusion width = 0.45mm
; perimeters extrusion width = 0.45mm
; infill extrusion width = 0.45mm
; solid infill extrusion width = 0.45mm
; top infill extrusion width = 0.40mm
; support material extrusion width = 0.35mm
; first layer extrusion width = 0.42mm

; external perimeters extrusion width = 0.45mm
; perimeters extrusion width = 0.45mm
; infill extrusion width = 0.45mm
; solid infill extrusion width = 0.45mm
; top infill extrusion width = 0.40mm
; support material extrusion width = 0.35mm
; first layer extrusion width = 0.42mm

M73 P0 R150
M73 Q0 S153
M201 X1000 Y1000 Z200 E5000 ; sets maximum accelerations, mm/sec^2
M203 X200 Y200 Z12 E120 ; sets maximum feedrates, mm / sec
M204 S1250 T1250 ; sets acceleration (S) and retract acceleration (R), mm/sec^2
M205 X8.00 Y8.00 Z0.40 E4.50 ; sets the jerk limits, mm/sec
M205 S0 T0 ; sets the minimum extruding and travel feed rate, mm/sec

; printing object SmallBatteryBoxBottom_v2.STL id:0 copy 0
; stop printing object SmallBatteryBoxBottom_v2.STL id:0 copy 0
; printing object SmallBatteryBoxTop_v2.STL id:1 copy 0
; stop printing object SmallBatteryBoxTop_v2.STL id:1 copy 0

;TYPE:Custom
M862.3 P "MK3S" ; printer model check
M862.1 P0.4 ; nozzle diameter check
M115 U3.13.2 ; tell printer latest fw version
G90 ; use absolute coordinates
M83 ; extruder relative mode
M104 S215 ; set extruder temp
M140 S60 ; set bed temp
M190 S60 ; wait for bed temp
M109 S215 ; wait for extruder temp
G28 W ; home all without mesh bed level
G80 X79.4869 Y43.1073 W100.325 H112.907 ; mesh bed levelling

G1 Z0.2 F720
G1 Y-3 F1000 ; go outside print area
G92 E0
G1 X60 E9 F1000 ; intro line
G1 X100 E12.5 F1000 ; intro line

G92 E0
M221 S95

; Don't change E values below. Excessive value can damage the printer.

M907 E538 ; set extruder motor current
G21 ; set units to millimeters
G90 ; use absolute coordinates
M83 ; use relative distances for extrusion
M900 K0.05 ; Filament gcode LA 1.5
M900 K30 ; Filament gcode LA 1.0

M107
;LAYER_CHANGE
;Z:0.2
;HEIGHT:0.2
;BEFORE_LAYER_CHANGE
G92 E0.0
;0.2


G1 E-.8 F2100
G1 Z.2 F720
;AFTER_LAYER_CHANGE
;0.2
G1 X81.147 Y50.759 F10800
G1 Z.2 F720
G1 E.8 F2100
M204 S800
;TYPE:Skirt/Brim
;WIDTH:0.42
G1 F1200
G1 X82.004 Y49.663 E.04362
G1 X83.168 Y48.599 E.04945
G1 X84.337 Y47.845 E.04362
G1 X85.991 Y47.16 E.05613
G1 X87.351 Y46.866 E.04363
G1 X129.365 Y43.304 E1.32205
G1 X177.136 Y43.296 E1.49783
G1 X178.817 Y43.992 E.05705
M73 Q0 S152
G1 X178.927 Y44.103 E.0049
G1 X179.623 Y45.783 E.05702
G1 X179.623 Y153.203 E3.36808
G1 X179.13 Y154.653 E.04802
G1 X178.942 Y154.898 E.00968
G1 X177.834 Y155.695 E.04279
G1 X177.058 Y155.826 E.02468
G1 X129.426 Y155.822 E1.49347
G1 X87.537 Y153.36 E1.31567
G1 X86.171 Y153.095 E.04363
G1 X84.864 Y152.619 E.04361
G1 X83.647 Y151.944 E.04363
G1 X82.551 Y151.088 E.0436
G1 X82.004 Y150.541 E.02425
G1 X81.251 Y149.6 E.03779
G1 X80.473 Y148.228 E.04945
G1 X80.172 Y147.482 E.02522
G1 X79.853 Y146.319 E.03781
G1 X79.675 Y144.644 E.05281
G1 X79.677 Y55.466 E2.79611
G1 X79.816 Y54.067 E.04408
G1 X80.236 Y52.547 E.04944
G1 X80.551 Y51.806 E.02525
G1 X81.118 Y50.811 E.03591
M204 S1000
;WIPE_START
G1 F8640
G1 X81.147 Y50.759 E-.01375
G1 X82.004 Y49.663 E-.32125
G1 X83.168 Y48.599 E-.36414
G1 X83.535 Y48.362 E-.10086
;WIPE_END
G1 Z.6 F720
G1 X130.53 Y51.47 F10800
G1 Z.2 F720
G1 E.8 F2100
M204 S800
G1 F1200
G1 X130.828 Y49.935 E.04903
G1 X131.554 Y48.596 E.04776
G1 X132.669 Y47.489 E.04926
G1 X133.995 Y46.802 E.04682
G1 X135.485 Y46.514 E.04758
G1 X171.747 Y46.518 E1.13697
G1 X172.767 Y46.712 E.03255
G1 X173.745 Y47.128 E.03332
G1 X174.87 Y48.023 E.04507
G1 X175.762 Y49.361 E.05042
G1 X176.171 Y50.907 E.05014
G1 X176.171 Y147.648 E3.03325
G1 X175.883 Y149.162 E.04832
G1 X175.14 Y150.531 E.04884
G1 X174.072 Y151.605 E.04749
G1 X172.748 Y152.304 E.04694
G1 X171.224 Y152.607 E.04872
G1 X135.486 Y152.607 E1.12054
G1 X133.951 Y152.309 E.04903
G1 X132.612 Y151.583 E.04776
G1 X131.504 Y150.468 E.04929
G1 X130.817 Y149.142 E.04682
G1 X130.53 Y147.653 E.04755
G1 X130.53 Y51.53 E3.01387
M204 S1000
G1 X130.907 Y51.53 F10800
M204 S800
G1 F1200
G1 X130.907 Y51.488 E.00132
G1 X131.174 Y50.087 E.04472
G1 X131.841 Y48.842 E.04429
G1 X132.871 Y47.809 E.04574
G1 X134.095 Y47.166 E.04335
G1 X135.503 Y46.891 E.04498
G1 X171.728 Y46.895 E1.13581
G1 X172.675 Y47.078 E.03024
G1 X173.572 Y47.463 E.03061
G1 X174.611 Y48.299 E.04181
G1 X175.407 Y49.489 E.04489
G1 X175.794 Y50.932 E.04684
G1 X175.794 Y147.63 E3.0319
G1 X175.518 Y149.061 E.04569
G1 X174.823 Y150.325 E.04523
G1 X173.827 Y151.317 E.04408
G1 X172.599 Y151.956 E.0434
G1 X171.206 Y152.23 E.04451
G1 X135.503 Y152.23 E1.11944
G1 X134.103 Y151.963 E.04469
G1 X132.858 Y151.296 E.04429
G1 X131.824 Y150.266 E.04576
G1 X131.182 Y149.042 E.04334
G1 X130.907 Y147.634 E.04498
G1 X130.907 Y51.59 E3.01139
M204 S1000
G1 X131.284 Y51.59 F10800
M73 P0 R149
M204 S800
G1 F1200
G1 X131.284 Y51.506 E.00263
G1 X131.539 Y50.188 E.04209
G1 X132.159 Y49.047 E.04072
G1 X133.115 Y48.097 E.04226
G1 X134.243 Y47.514 E.03981
G1 X135.521 Y47.269 E.0408
G1 X171.71 Y47.272 E1.13468
G1 X172.581 Y47.444 E.02784
G1 X173.397 Y47.799 E.0279
G1 X174.35 Y48.573 E.03849
G1 X175.075 Y49.671 E.04125
G1 X175.417 Y50.956 E.04169
G1 X175.417 Y147.612 E3.03058
G1 X175.173 Y148.908 E.04135
G1 X174.536 Y150.079 E.0418
G1 X173.624 Y150.998 E.0406
G1 X172.498 Y151.592 E.03992
G1 X171.187 Y151.853 E.04191
G1 X135.522 Y151.853 E1.11825
G1 X134.204 Y151.598 E.04209
G1 X133.063 Y150.978 E.04072
G1 X132.113 Y150.022 E.04226
G1 X131.53 Y148.894 E.03981
G1 X131.284 Y147.617 E.04078
G1 X131.284 Y51.65 E3.00898
M204 S1000
G1 X131.661 Y51.65 F10800
M73 Q0 S151
M204 S800
G1 F1200
G1 X131.661 Y51.525 E.00392
G1 X131.903 Y50.29 E.03946
G1 X132.475 Y49.254 E.03711
G1 X133.358 Y48.387 E.0388
G1 X134.389 Y47.862 E.03628
G1 X135.538 Y47.646 E.03666
G1 X171.69 Y47.649 E1.13352
G1 X172.486 Y47.809 E.02546
G1 X173.221 Y48.133 E.02519
G1 X174.087 Y48.845 E.03515
G1 X174.742 Y49.851 E.03764
G1 X175.04 Y50.98 E.03661
G1 X175.04 Y147.594 E3.02926
G1 X174.808 Y148.807 E.03872
G1 X174.219 Y149.873 E.03819
G1 X173.38 Y150.71 E.03716
G1 X172.349 Y151.245 E.03642
G1 X171.169 Y151.476 E.0377
G1 X135.54 Y151.476 E1.11712
G1 X134.306 Y151.234 E.03943
G1 X133.27 Y150.662 E.03711
G1 X132.403 Y149.779 E.0388
G1 X131.878 Y148.748 E.03628
G1 X131.661 Y147.599 E.03666
G1 X131.661 Y51.71 E3.00653
M204 S1000
G1 X132.038 Y51.71 F10800
M204 S800
G1 F1200
G1 X132.038 Y51.542 E.00527
G1 X132.248 Y50.444 E.03505
G1 X132.761 Y49.501 E.03366
G1 X133.558 Y48.708 E.03525
G1 X134.488 Y48.227 E.03283
G1 X135.556 Y48.023 E.03409
G1 X171.672 Y48.026 E1.13239
G1 X172.353 Y48.163 E.02178
G1 X173.044 Y48.467 E.02367
G1 X173.824 Y49.116 E.03181
G1 X174.386 Y49.978 E.03226
G1 X174.662 Y51.005 E.03334
G1 X174.662 Y147.577 E3.02795
G1 X174.462 Y148.654 E.03435
M73 P1 R149
M73 Q1 S151
G1 X173.933 Y149.625 E.03467
G1 X173.135 Y150.421 E.03534
G1 X172.202 Y150.896 E.03283
G1 X171.151 Y151.099 E.03356
G1 X135.558 Y151.099 E1.11599
G1 X134.459 Y150.889 E.03508
G1 X133.517 Y150.376 E.03363
G1 X132.724 Y149.579 E.03525
G1 X132.243 Y148.65 E.0328
G1 X132.038 Y147.581 E.03413
G1 X132.038 Y51.77 E3.00409
M204 S1000
G1 X132.415 Y51.77 F10800
M204 S800
G1 F1200
G1 X132.415 Y51.56 E.00658
G1 X132.613 Y50.546 E.03239
G1 X133.077 Y49.709 E.03001
G1 X133.8 Y48.998 E.03179
G1 X134.633 Y48.576 E.02928
G1 X135.573 Y48.4 E.02999
G1 X171.652 Y48.403 E1.13123
G1 X172.256 Y48.528 E.01934
G1 X172.865 Y48.8 E.02091
G1 X173.558 Y49.385 E.02844
G1 X174.052 Y50.156 E.02871
G1 X174.285 Y51.03 E.02836
G1 X174.285 Y147.56 E3.02663
G1 X174.098 Y148.553 E.03168
G1 X173.618 Y149.417 E.03099
G1 X172.893 Y150.131 E.0319
G1 X172.058 Y150.547 E.02925
G1 X171.134 Y150.722 E.02949
G1 X135.576 Y150.722 E1.1149
G1 X134.561 Y150.525 E.03242
G1 X133.725 Y150.061 E.02998
G1 X133.014 Y149.337 E.03182
G1 X132.592 Y148.504 E.02928
G1 X132.415 Y147.564 E.02999
G1 X132.415 Y51.83 E3.00167
M204 S1000
G1 X132.792 Y51.83 F10800
M73 P1 R148
M204 S800
G1 F1200
G1 X132.792 Y51.577 E.00793
G1 X132.958 Y50.699 E.02802
G1 X133.361 Y49.958 E.02645
G1 X134.043 Y49.289 E.02995
G1 X134.776 Y48.926 E.02565
G1 X135.59 Y48.777 E.02595
G1 X171.632 Y48.78 E1.13007
G1 X172.156 Y48.892 E.0168
G1 X172.684 Y49.132 E.01819
G1 X173.292 Y49.653 E.02511
G1 X173.697 Y50.284 E.02351
G1 X173.908 Y51.056 E.02509
G1 X173.908 Y147.541 E3.02522
G1 X173.734 Y148.45 E.02902
G1 X173.304 Y149.207 E.0273
G1 X172.652 Y149.839 E.02847
G1 X171.962 Y150.182 E.02416
G1 X171.116 Y150.345 E.02701
G1 X135.593 Y150.345 E1.1138
G1 X134.714 Y150.179 E.02805
G1 X133.974 Y149.776 E.02642
G1 X133.304 Y149.095 E.02995
G1 X132.942 Y148.362 E.02563
G1 X132.792 Y147.547 E.02598
G1 X132.792 Y51.89 E2.99926
M204 S1000
G1 X133.17 Y51.89 F10800
M204 S800
G1 F1200
G1 X133.17 Y51.596 E.00922
G1 X133.323 Y50.801 E.02538
G1 X133.676 Y50.167 E.02275
G1 X134.283 Y49.581 E.02645
G1 X134.87 Y49.292 E.02051
G1 X135.608 Y49.154 E.02354
G1 X171.611 Y49.158 E1.12885
G1 X172.054 Y49.255 E.01422
M73 Q1 S150
G1 X172.5 Y49.462 E.01542
G1 X173.023 Y49.919 E.02178
G1 X173.342 Y50.414 E.01846
G1 X173.531 Y51.083 E.0218
G1 X173.531 Y147.523 E3.02381
G1 X173.37 Y148.347 E.02632
G1 X173.023 Y148.954 E.02192
G1 X172.412 Y149.547 E.0267
G1 X171.822 Y149.831 E.02053
G1 X171.098 Y149.968 E.0231
G1 X135.611 Y149.968 E1.11267
G1 X134.817 Y149.815 E.02535
G1 X134.183 Y149.461 E.02277
G1 X133.597 Y148.855 E.02643
G1 X133.308 Y148.267 E.02054
G1 X133.17 Y147.529 E.02354
G1 X133.17 Y51.95 E2.99681
M204 S1000
G1 X133.547 Y51.95 F10800
M204 S800
G1 F1200
G1 X133.547 Y51.614 E.01054
G1 X133.686 Y50.906 E.02262
G1 X133.988 Y50.38 E.01902
G1 X134.519 Y49.876 E.02295
G1 X135.008 Y49.644 E.01697
G1 X135.624 Y49.531 E.01964
G1 X171.588 Y49.535 E1.12763
G1 X172.313 Y49.79 E.0241
G1 X172.753 Y50.182 E.01848
G1 X172.988 Y50.547 E.01361
G1 X173.154 Y51.111 E.01843
G1 X173.154 Y147.504 E3.02233
G1 X173.006 Y148.242 E.0236
G1 X172.741 Y148.702 E.01665
G1 X172.172 Y149.254 E.02486
G1 X171.727 Y149.465 E.01544
G1 X171.08 Y149.591 E.02067
G1 X135.63 Y149.591 E1.11151
G1 X134.921 Y149.451 E.02266
G1 X134.396 Y149.149 E.01899
G1 X133.892 Y148.618 E.02295
G1 X133.659 Y148.129 E.01698
G1 X133.547 Y147.513 E.01963
G1 X133.547 Y52.01 E2.99443
M204 S1000
G1 X133.924 Y52.01 F10800
M204 S800
G1 F1200
G1 X133.924 Y51.634 E.01179
G1 X134.049 Y51.011 E.01992
G1 X134.267 Y50.635 E.01363
G1 X134.756 Y50.171 E.02114
G1 X135.101 Y50.01 E.01194
G1 X135.642 Y49.908 E.01726
G1 X171.566 Y49.912 E1.12637
G1 X172.125 Y50.118 E.01868
G1 X172.636 Y50.685 E.02393
G1 X172.777 Y51.14 E.01494
G1 X172.777 Y147.487 E3.02089
G1 X172.662 Y148.086 E.01912
G1 X172.456 Y148.454 E.01322
G1 X171.977 Y148.93 E.02117
G1 X171.628 Y149.101 E.01219
G1 X171.061 Y149.213 E.01812
G1 X135.649 Y149.213 E1.11032
G1 X135.027 Y149.088 E.01989
G1 X134.651 Y148.87 E.01363
G1 X134.187 Y148.381 E.02114
G1 X134.025 Y148.036 E.01195
G1 X133.924 Y147.495 E.01726
G1 X133.924 Y52.07 E2.99198
M204 S1000
G1 X134.301 Y52.07 F10800
M204 S800
G1 F1200
G1 X134.301 Y51.651 E.01314
G1 X134.394 Y51.167 E.01545
G1 X134.552 Y50.884 E.01016
G1 X134.95 Y50.495 E.01745
G1 X135.661 Y50.285 E.02324
G1 X171.544 Y50.289 E1.12509
G1 X171.935 Y50.446 E.01321
G1 X172.204 Y50.701 E.01162
G1 X172.4 Y51.172 E.016
G1 X172.4 Y147.468 E3.01929
G1 X172.298 Y147.982 E.01643
M73 P1 R147
G1 X171.776 Y148.61 E.0256
G1 X171.041 Y148.836 E.02411
G1 X135.666 Y148.836 E1.10916
G1 X135.182 Y148.743 E.01545
G1 X134.9 Y148.586 E.01012
G1 X134.511 Y148.187 E.01747
G1 X134.301 Y147.476 E.02324
G1 X134.301 Y52.13 E2.98951
M204 S1000
G1 X134.678 Y52.13 F10800
M73 P2 R147
M73 Q2 S150
M204 S800
G1 F1200
G1 X134.678 Y51.67 E.01442
G1 X134.757 Y51.271 E.01275
G1 X135.152 Y50.815 E.01892
G1 X135.68 Y50.662 E.01724
G1 X171.492 Y50.662 E1.12286
G1 X171.923 Y50.953 E.01631
G1 X172.023 Y51.207 E.00856
G1 X172.023 Y147.451 E3.01766
G1 X171.952 Y147.831 E.01212
M73 Q2 S149
G1 X171.569 Y148.294 E.01884
G1 X171.021 Y148.459 E.01794
G1 X135.686 Y148.459 E1.1079
G1 X135.287 Y148.38 E.01275
G1 X134.831 Y147.986 E.0189
G1 X134.678 Y147.457 E.01727
G1 X134.678 Y52.19 E2.98703
M204 S1000
G1 X135.055 Y52.19 F10800
M204 S800
G1 F1200
G1 X135.055 Y51.686 E.0158
G1 X135.106 Y51.417 E.00858
G1 X135.365 Y51.127 E.01219
G1 X135.701 Y51.039 E.01089
G1 X171.506 Y51.068 E1.12264
G1 X171.646 Y51.249 E.00717
G1 X171.601 Y147.691 E3.02387
G1 X171.35 Y147.986 E.01214
G1 X170.999 Y148.082 E.01141
G1 X135.702 Y148.082 E1.10671
G1 X135.433 Y148.032 E.00858
G1 X135.142 Y147.773 E.01221
G1 X135.055 Y147.436 E.01091
G1 X135.055 Y52.25 E2.98449
M204 S1000
;WIPE_START
G1 F8640
G1 X135.055 Y52.19 E-.01385
G1 X135.055 Y51.686 E-.11637
G1 X135.106 Y51.417 E-.06322
G1 X135.365 Y51.127 E-.08978
G1 X135.701 Y51.039 E-.0802
G1 X137.592 Y51.041 E-.43658
;WIPE_END
G1 Z.6 F720
G1 X123.191 Y54.412 F10800
G1 Z.2 F720
G1 E.8 F2100
M204 S800
G1 F1200
G1 X123.314 Y55.507 E.03455
G1 X123.316 Y144.638 E2.79464
G1 X123.244 Y145.487 E.02672
G1 X123.052 Y146.339 E.02738
G1 X122.72 Y147.202 E.02899
G1 X122.257 Y148.016 E.02936
G1 X121.66 Y148.769 E.03013
G1 X120.976 Y149.404 E.02926
G1 X120.175 Y149.944 E.03029
G1 X119.326 Y150.344 E.02943
G1 X118.399 Y150.618 E.03031
G1 X117.498 Y150.738 E.0285
G1 X88.454 Y150.753 E.91065
G1 X87.605 Y150.681 E.02672
G1 X86.753 Y150.489 E.02738
G1 X85.855 Y150.141 E.0302
G1 X85 Y149.642 E.03104
G1 X84.242 Y149.02 E.03074
G1 X83.595 Y148.292 E.03054
G1 X83.07 Y147.472 E.03053
G1 X82.681 Y146.579 E.03054
G1 X82.436 Y145.638 E.03049
G1 X82.339 Y144.647 E.03122
G1 X82.339 Y55.566 E2.79307
G1 X82.411 Y54.717 E.02672
G1 X82.603 Y53.865 E.02738
G1 X82.935 Y53.001 E.02902
G1 X83.396 Y52.19 E.02925
G1 X83.995 Y51.435 E.03022
G1 X84.682 Y50.798 E.02938
G1 X85.48 Y50.259 E.03019
G1 X86.329 Y49.859 E.02943
G1 X87.256 Y49.586 E.0303
G1 X88.158 Y49.466 E.02853
G1 X117.48 Y49.465 E.91937
G1 X118.363 Y49.578 E.02791
G1 X119.693 Y50.011 E.04386
G1 X120.719 Y50.607 E.0372
G1 X121.612 Y51.383 E.03709
G1 X122.242 Y52.166 E.03151
G1 X122.751 Y53.064 E.03236
G1 X123.173 Y54.355 E.04259
M204 S1000
G1 X122.816 Y54.472 F10800
M204 S800
G1 F1200
G1 X122.823 Y54.495 E.00075
G1 X122.938 Y55.538 E.0329
G1 X122.939 Y144.63 E2.79342
G1 X122.873 Y145.418 E.02479
G1 X122.695 Y146.217 E.02567
G1 X122.373 Y147.053 E.02809
G1 X121.937 Y147.816 E.02755
G1 X121.374 Y148.522 E.02831
G1 X120.731 Y149.116 E.02745
G1 X119.977 Y149.623 E.02849
G1 X119.18 Y149.997 E.0276
G1 X118.307 Y150.251 E.02851
G1 X117.461 Y150.362 E.02675
G1 X88.462 Y150.376 E.90924
G1 X87.674 Y150.31 E.02479
G1 X86.875 Y150.132 E.02567
G1 X86.031 Y149.807 E.02836
G1 X85.226 Y149.34 E.02918
G1 X84.513 Y148.758 E.02886
G1 X83.904 Y148.075 E.02869
G1 X83.41 Y147.307 E.02863
G1 X83.032 Y146.443 E.02957
G1 X82.805 Y145.559 E.02862
G1 X82.716 Y144.638 E.02901
G1 X82.716 Y55.573 E2.79257
G1 X82.782 Y54.786 E.02476
M73 P2 R146
G1 X82.96 Y53.987 E.02567
G1 X83.282 Y53.15 E.02812
G1 X83.716 Y52.39 E.02744
G1 X84.281 Y51.681 E.02843
G1 X84.927 Y51.085 E.02756
G1 X85.678 Y50.581 E.02836
G1 X86.475 Y50.207 E.0276
G1 X87.348 Y49.952 E.02852
G1 X88.194 Y49.841 E.02675
G1 X117.445 Y49.84 E.91714
G1 X118.279 Y49.945 E.02636
G1 X119.543 Y50.357 E.04168
G1 X120.486 Y50.904 E.03418
G1 X121.33 Y51.634 E.03499
G1 X121.922 Y52.366 E.02952
G1 X122.404 Y53.214 E.03058
G1 X122.797 Y54.415 E.03962
M204 S1000
G1 X122.44 Y54.532 F10800
M204 S800
G1 F1200
G1 X122.455 Y54.577 E.00149
G1 X122.562 Y55.568 E.03125
G1 X122.562 Y144.623 E2.79226
G1 X122.499 Y145.373 E.0236
G1 X122.331 Y146.12 E.02401
G1 X122.027 Y146.903 E.02634
G1 X121.618 Y147.615 E.02575
G1 X121.089 Y148.275 E.02652
G1 X120.487 Y148.829 E.02565
G1 X119.78 Y149.301 E.02665
G1 X119.034 Y149.649 E.02581
G1 X118.217 Y149.885 E.02666
G1 X117.425 Y149.987 E.02504
G1 X88.47 Y149.999 E.90786
G1 X87.719 Y149.936 E.02363
G1 X86.972 Y149.767 E.02401
G1 X86.182 Y149.461 E.02656
G1 X85.429 Y149.022 E.02733
G1 X84.764 Y148.476 E.02698
G1 X84.196 Y147.836 E.02683
G1 X83.736 Y147.116 E.02679
G1 X83.393 Y146.333 E.0268
